ix/task_bulk.svg

<svg viewBox="0 0 24 24" fill="none" xmlns="http://www.w3.org/2000/svg" height="1em" width="1em">
  <path d="M19.9994 19.2601H10.9294C10.4794 19.2601 10.1094 18.8901 10.1094 18.4401C10.1094 17.9901 10.4794 17.6201 10.9294 17.6201H19.9994C20.4494 17.6201 20.8194 17.9901 20.8194 18.4401C20.8194 18.9001 20.4494 19.2601 19.9994 19.2601Z" fill="#292D32"/>
  <path d="M19.9994 12.9701H10.9294C10.4794 12.9701 10.1094 12.6001 10.1094 12.1501C10.1094 11.7001 10.4794 11.3301 10.9294 11.3301H19.9994C20.4494 11.3301 20.8194 11.7001 20.8194 12.1501C20.8194 12.6001 20.4494 12.9701 19.9994 12.9701Z" fill="#292D32"/>
  <path d="M19.9994 6.66979H10.9294C10.4794 6.66979 10.1094 6.29978 10.1094 5.84978C10.1094 5.39978 10.4794 5.02979 10.9294 5.02979H19.9994C20.4494 5.02979 20.8194 5.39978 20.8194 5.84978C20.8194 6.29978 20.4494 6.66979 19.9994 6.66979Z" fill="#292D32"/>
  <path opacity="0.4" d="M4.90969 8.02992C4.68969 8.02992 4.47969 7.93992 4.32969 7.78992L3.41969 6.87992C3.09969 6.55992 3.09969 6.03992 3.41969 5.71992C3.73969 5.39992 4.25969 5.39992 4.57969 5.71992L4.90969 6.04992L7.04969 3.90992C7.36969 3.58992 7.88969 3.58992 8.20969 3.90992C8.52969 4.22992 8.52969 4.74992 8.20969 5.06992L5.48969 7.78992C5.32969 7.93992 5.12969 8.02992 4.90969 8.02992Z" fill="#292D32"/>
  <path opacity="0.4" d="M4.90969 14.3302C4.69969 14.3302 4.48969 14.2502 4.32969 14.0902L3.41969 13.1802C3.09969 12.8602 3.09969 12.3402 3.41969 12.0202C3.73969 11.7002 4.25969 11.7002 4.57969 12.0202L4.90969 12.3502L7.04969 10.2102C7.36969 9.89021 7.88969 9.89021 8.20969 10.2102C8.52969 10.5302 8.52969 11.0502 8.20969 11.3702L5.48969 14.0902C5.32969 14.2502 5.11969 14.3302 4.90969 14.3302Z" fill="#292D32"/>
  <path opacity="0.4" d="M4.90969 20.3302C4.69969 20.3302 4.48969 20.2502 4.32969 20.0902L3.41969 19.1802C3.09969 18.8602 3.09969 18.3402 3.41969 18.0202C3.73969 17.7002 4.25969 17.7002 4.57969 18.0202L4.90969 18.3502L7.04969 16.2102C7.36969 15.8902 7.88969 15.8902 8.20969 16.2102C8.52969 16.5302 8.52969 17.0502 8.20969 17.3702L5.48969 20.0902C5.32969 20.2502 5.11969 20.3302 4.90969 20.3302Z" fill="#292D32"/>
</svg>

<svg viewBox="0 0 24 24" fill="none" xmlns="http://www.w3.org/2000/svg" height="1em" width="1em">
  <path d="M20 19.26h-9.07c-.45 0-.82-.37-.82-.82 0-.45.37-.82.82-.82H20c.45 0 .82.37.82.82 0 .46-.37.82-.82.82Zm0-6.29h-9.07c-.45 0-.82-.37-.82-.82 0-.45.37-.82.82-.82H20c.45 0 .82.37.82.82 0 .45-.37.82-.82.82Zm0-6.3h-9.07c-.45 0-.82-.37-.82-.82 0-.45.37-.82.82-.82H20c.45 0 .82.37.82.82 0 .45-.37.82-.82.82Z" fill="#292D32"/>
  <path opacity=".4" d="M4.91 8.03c-.22 0-.43-.09-.58-.24l-.91-.91a.82.82 0 0 1 1.16-1.16l.33.33 2.14-2.14a.82.82 0 0 1 1.16 1.16L5.49 7.79c-.16.15-.36.24-.58.24Zm0 6.3c-.21 0-.42-.08-.58-.24l-.91-.91a.82.82 0 0 1 1.16-1.16l.33.33 2.14-2.14a.82.82 0 0 1 1.16 1.16l-2.72 2.72c-.16.16-.37.24-.58.24Zm0 6c-.21 0-.42-.08-.58-.24l-.91-.91a.82.82 0 0 1 1.16-1.16l.33.33 2.14-2.14a.82.82 0 0 1 1.16 1.16l-2.72 2.72c-.16.16-.37.24-.58.24Z" fill="#292D32"/>
</svg>
